X:80
T:Sir Cecil Wray's Delight. THO5.080
M:6/8
L:1/8
B:Thompson's Complete Collection of 200 Favourite Dances Vol.5
F:https://www.libraryofdance.org/manuals/1780c-Thompson-Compleat-5.pdf
Z:vmp. Peter Dunk 2024
Q:3/8=100
K:D
a2a afd|Bed cBc|dfd Bef|ged cBA|
a2a afd|Bed cBc|dfd Bge|{d/}cBc d3:|
|:DFA DAd|Bed cBc|dfd' afd|efd cBA|
DFA DAd|Bed cBc|dfd' afd|{f/}ede d3:|
W:
W:Cast off one Couple, cross over the third Couple ./.
W:The same back again ./:
W:Change places, foot it and turn :/.
W:Cross over and turn :/:

